X: 16347
T: Gullane, The
R: polka
M: 2/4
K: Dmajor
d>B AF|A2 A2|B/c/d/B/ AF|E2 E2|
d>B AF|Ad f>e|dB AF|D2 D2:|
|:fd fa|eg fe|fd fa|f2 f>e|
fd fa|eg f>e|dB AF|D2 D2:|

